X: 460
T: A Walk On The Shore
R: hornpipe
M: 4/4
K: Amajor
|:AB|ce ec e2 ce|f2 ec ec AB|ce ea fe AB|c6 AB|
ce ec B3A|cA BA FA FE|CE EC EF EC|E6:|
|:A,B,|CE EC E2 CE|F2 AF AF D2|CE EC EF AB|c6 AB|
ce ec B3 A|cA BA FA FE|CE EC EF EC|E6:|

